X:29
T:C\'or Sars, The 1 and, Bew
W:Rish Hode Be, The
R:hornpipe
H:Be fill of Mattther
Z:id:hn-ho


*****************************


10500 4 2.0336983 

<starte+chetnambs.gale:|
M:3/4
L:1/8
K:D
DF GA (3BAG | eceg fdec | dBAG A2AG | DDD2 GAGF | EG~G2 FGAF | f


*****************************


10600 4 0.7536943 

<startot>haipes
M:2/4
L:1/4
K:G
GB|DGAg GABd|G2Bd g2ef|~g3F GBAG|BGFG AG (3DEF|G2G2 BG (3Bcd | (3efed (3c


*****************************


10700 4 1.1731608 

<start>
